src/4-icons/ticket.svg

<svg width="260" height="260" viewBox="0 0 260 260" fill="none" xmlns="http://www.w3.org/2000/svg"><g opacity=".9" fill="#000"><path d="M76 103a7 7 0 1 1 14 0v16a7 7 0 1 1-14 0v-16Zm7 31a7 7 0 0 0-7 7v16a7 7 0 1 0 14 0v-16a7 7 0 0 0-7-7Z"/><path fill-rule="evenodd" clip-rule="evenodd" d="M257 50H3a3 3 0 0 0-3 3v41a3 3 0 0 0 3 3h4c18.225 0 33 14.775 33 33s-14.775 33-33 33H3a3 3 0 0 0-3 3v41a3 3 0 0 0 3 3h254a3 3 0 0 0 3-3v-41a3 3 0 0 0-3-3h-4c-18.225 0-33-14.775-33-33s14.775-33 33-33h4a3 3 0 0 0 3-3V53a3 3 0 0 0-3-3Zm-11 33.518V64H90v16a7 7 0 1 1-14 0V64H14v19.518C36.637 86.898 54 106.42 54 130s-17.363 43.102-40 46.482V196h62v-16a7 7 0 1 1 14 0v16h156v-19.518c-22.637-3.38-40-22.903-40-46.482s17.363-43.102 40-46.482Z"/></g></svg>

<svg width="260" height="260" viewBox="0 0 260 260" fill="none" xmlns="http://www.w3.org/2000/svg">
<g opacity="0.9">
<path d="M76 103C76 99.134 79.134 96 83 96C86.866 96 90 99.134 90 103V119C90 122.866 86.866 126 83 126C79.134 126 76 122.866 76 119V103Z" fill="black"/>
<path d="M83 134C79.134 134 76 137.134 76 141V157C76 160.866 79.134 164 83 164C86.866 164 90 160.866 90 157V141C90 137.134 86.866 134 83 134Z" fill="black"/>
<path fill-rule="evenodd" clip-rule="evenodd" d="M257 50H3C1.34314 50 0 51.3431 0 53V94C0 95.6569 1.34314 97 3 97H7C25.2254 97 40 111.775 40 130C40 148.225 25.2254 163 7 163H3C1.34314 163 0 164.343 0 166V207C0 208.657 1.34314 210 3 210H257C258.657 210 260 208.657 260 207V166C260 164.343 258.657 163 257 163H253C234.775 163 220 148.225 220 130C220 111.775 234.775 97 253 97H257C258.657 97 260 95.6569 260 94V53C260 51.3431 258.657 50 257 50ZM246 83.5177V64H90V80C90 83.866 86.866 87 83 87C79.134 87 76 83.866 76 80V64H14V83.5177C36.6374 86.898 54 106.421 54 130C54 153.579 36.6374 173.102 14 176.482V196H76V180C76 176.134 79.134 173 83 173C86.866 173 90 176.134 90 180V196H246V176.482C223.363 173.102 206 153.579 206 130C206 106.421 223.363 86.898 246 83.5177Z" fill="black"/>
</g>
</svg>
